public/img/DONE_ICON.svg

<?xml version="1.0" encoding="UTF-8"?>
<svg width="78px" height="90px" viewBox="0 0 78 90" version="1.1" xmlns="http://www.w3.org/2000/svg" xmlns:xlink="http://www.w3.org/1999/xlink">
    <!-- Generator: Sketch 42 (36781) - http://www.bohemiancoding.com/sketch -->
    <title>DONE_ICON</title>
    <desc>Created with Sketch.</desc>
    <defs></defs>
    <g id="Page-1" stroke="none" stroke-width="1" fill="none" fill-rule="evenodd">
        <g id="Artboard" transform="translate(-238.000000, -106.000000)">
            <g id="DONE_ICON" transform="translate(238.000000, 106.000000)">
                <polygon id="Fill-1" fill="#00B0AF" points="38.97072 9e-05 -0.00018 22.50009 -0.00018 67.50009 38.97072 90.00009 77.94252 67.50009 77.94252 22.50009"></polygon>
                <path d="M33.02946,53.74494 C33.30666,53.34894 33.44976,53.15094 33.58656,52.94844 C39.99546,43.49844 46.40436,34.04844 52.81236,24.59844 C53.94276,22.93164 55.23876,22.68864 56.91816,23.82894 C58.07736,24.61554 59.23926,25.39854 60.39216,26.19414 C61.76736,27.14274 62.04366,28.50714 61.10946,29.88684 C53.18856,41.58144 45.26496,53.27244 37.33146,64.95714 C36.46386,66.23514 35.32356,67.09284 33.66036,66.82374 C32.62446,66.65634 31.75146,66.13704 31.01526,65.40174 C26.38296,60.77394 21.75156,56.14524 17.12826,51.50754 C16.00506,50.37984 16.00686,48.97494 17.11926,47.83194 C18.17766,46.74564 19.25316,45.67464 20.33226,44.60904 C21.53106,43.42464 22.94496,43.42374 24.13836,44.61354 C26.98146,47.44674 29.81736,50.28624 32.64876,53.13024 C32.79546,53.27694 32.87466,53.49024 33.02946,53.74494" id="Fill-2" fill="#FEFEFE"></path>
            </g>
        </g>
    </g>
</svg>

<svg width="78" height="90" viewBox="0 0 78 90" xmlns="http://www.w3.org/2000/svg"><title>DONE_ICON</title><g fill="none" fill-rule="evenodd"><path fill="#00B0AF" d="M38.97 0L0 22.5v45L38.97 90l38.973-22.5v-45z"/><path d="M33.03 53.745c.277-.396.42-.594.557-.797l19.225-28.35c1.13-1.666 2.427-1.91 4.106-.77 1.16.788 2.321 1.57 3.474 2.366 1.375.949 1.652 2.313.717 3.693a37438.456 37438.456 0 0 1-23.778 35.07c-.867 1.278-2.007 2.136-3.67 1.867-1.037-.168-1.91-.687-2.646-1.422a9625.193 9625.193 0 0 1-13.887-13.894c-1.123-1.128-1.121-2.533-.009-3.676a235.827 235.827 0 0 1 3.213-3.223c1.2-1.184 2.613-1.185 3.806.005 2.843 2.833 5.68 5.672 8.51 8.516.147.147.227.36.381.615" fill="#FEFEFE"/></g></svg>
